X: 1874
T: Armstrong's
R: jig
M: 6/8
K: Bminor
f>ef B>AB|g>fe d>BG|e>ce A2A|f>ed B>cd|
f>ef B>AB|g>fe d>BG|c<ec A>ce|d>BA B3:|
G>BG dBG|A>cA ecA|F>AF c>AF|G2G A3|
G>BG dBG|A>cA e>cA|g>fe d>BG|c>BA B3:|

